packages/dnb-ui-lib/assets/icons/add.svg

<svg width="16" height="16" viewBox="0 0 16 16" fill="none" xmlns="http://www.w3.org/2000/svg">
<path d="M7.25 14C7.25 14.4142 7.58579 14.75 8 14.75C8.41421 14.75 8.75 14.4142 8.75 14H7.25ZM8.75 2C8.75 1.58579 8.41421 1.25 8 1.25C7.58579 1.25 7.25 1.58579 7.25 2H8.75ZM14 8.75C14.4142 8.75 14.75 8.41421 14.75 8C14.75 7.58579 14.4142 7.25 14 7.25V8.75ZM2 7.25C1.58579 7.25 1.25 7.58579 1.25 8C1.25 8.41421 1.58579 8.75 2 8.75V7.25ZM8.75 14V2H7.25V14H8.75ZM14 7.25H2V8.75H14V7.25Z" fill="black"/>
</svg>

<svg width="16" height="16" viewBox="0 0 16 16" fill="none" xmlns="http://www.w3.org/2000/svg"><path d="M7.25 14a.75.75 0 001.5 0h-1.5zm1.5-12a.75.75 0 00-1.5 0h1.5zM14 8.75a.75.75 0 000-1.5v1.5zM2 7.25a.75.75 0 000 1.5v-1.5zM8.75 14V2h-1.5v12h1.5zM14 7.25H2v1.5h12v-1.5z" fill="#000"/></svg>
